assets/icons/twitter.svg

<svg width="24" height="24" viewBox="0 0 24 24" fill="none" xmlns="http://www.w3.org/2000/svg">
<path d="M24 4.29484C23.1075 4.68402 22.1565 4.94199 21.165 5.06724C22.185 4.46185 22.9635 3.51051 23.3295 2.36383C22.3785 2.92748 21.3285 3.32561 20.2095 3.54779C19.3065 2.59198 18.0195 2 16.6155 2C13.8915 2 11.6985 4.19792 11.6985 6.89238C11.6985 7.28007 11.7315 7.65285 11.8125 8.00774C7.722 7.80942 4.1025 5.86052 1.671 2.89169C1.2465 3.62383 0.9975 4.46185 0.9975 5.36398C0.9975 7.05789 1.875 8.55946 3.183 9.42878C2.3925 9.41387 1.617 9.18573 0.96 8.82637C0.96 8.84128 0.96 8.86066 0.96 8.88005C0.96 11.2569 2.6655 13.2311 4.902 13.6859C4.5015 13.7948 4.065 13.847 3.612 13.847C3.297 13.847 2.979 13.8291 2.6805 13.7635C3.318 15.7005 5.127 17.1245 7.278 17.1707C5.604 18.4725 3.4785 19.2568 1.1775 19.2568C0.774 19.2568 0.387 19.2389 0 19.1897C2.1795 20.5869 4.7625 21.3846 7.548 21.3846C16.602 21.3846 21.552 13.929 21.552 7.46646C21.552 7.25025 21.5445 7.04149 21.534 6.83423C22.5105 6.14533 23.331 5.28495 24 4.29484Z" fill="white"/>
</svg>

<svg width="24" height="24" fill="none" xmlns="http://www.w3.org/2000/svg"><path d="M24 4.295c-.892.389-1.843.647-2.835.772a4.869 4.869 0 0 0 2.165-2.703 9.868 9.868 0 0 1-3.12 1.184A4.944 4.944 0 0 0 16.614 2C13.893 2 11.7 4.198 11.7 6.892c0 .388.033.76.114 1.116A13.954 13.954 0 0 1 1.67 2.892a4.902 4.902 0 0 0-.673 2.472 4.89 4.89 0 0 0 2.185 4.065A4.881 4.881 0 0 1 .96 8.826v.054c0 2.377 1.706 4.351 3.942 4.806-.4.109-.837.161-1.29.161-.315 0-.633-.018-.932-.083a4.963 4.963 0 0 0 4.598 3.407 9.923 9.923 0 0 1-6.1 2.086c-.404 0-.791-.018-1.178-.067a13.911 13.911 0 0 0 7.548 2.195c9.054 0 14.004-7.456 14.004-13.919 0-.216-.008-.425-.018-.632A9.784 9.784 0 0 0 24 4.294Z" fill="#fff"/></svg>
